X:5378
T:Flowers of Edinburgh
M:4/4
L:1/8
K:D
GsF/2E/2s|D3 E G3A|BABd B2 AB|F3E DEFG|AFdF EFGE|D3E G3A|BABd e3g|B2 AG 
AGAc|B2G2G2:|!
d2|gfga b2 ag|fefg a2 gf|edef gfed|B2 e2e2g2|dBAG d2 cB|edef g3a|B2 AG A
GAc|B2 G2 G2:|
